docs/img/reviews/1.svg

<svg width="40" height="40" viewBox="0 0 40 40" fill="none" xmlns="http://www.w3.org/2000/svg">
<circle cx="20" cy="20" r="20" fill="#7895A6"/>
<path d="M21.459 14.7676C20.252 14.7676 19.3027 15.1953 18.6113 16.0508C17.9199 16.9062 17.5742 18.0869 17.5742 19.5928C17.5742 21.1689 17.9053 22.3613 18.5674 23.1699C19.2354 23.9785 20.1992 24.3828 21.459 24.3828C22.0039 24.3828 22.5312 24.3301 23.041 24.2246C23.5508 24.1133 24.0811 23.9727 24.6318 23.8027V25.6045C23.624 25.9854 22.4814 26.1758 21.2041 26.1758C19.3232 26.1758 17.8789 25.6074 16.8711 24.4707C15.8633 23.3281 15.3594 21.6963 15.3594 19.5752C15.3594 18.2393 15.6025 17.0703 16.0889 16.0684C16.5811 15.0664 17.29 14.2988 18.2158 13.7656C19.1416 13.2324 20.2285 12.9658 21.4766 12.9658C22.7891 12.9658 24.002 13.2412 25.1152 13.792L24.3594 15.541C23.9258 15.3359 23.4658 15.1572 22.9795 15.0049C22.499 14.8467 21.9922 14.7676 21.459 14.7676Z" fill="white"/>
</svg>

<svg width="40" height="40" fill="none" xmlns="http://www.w3.org/2000/svg"><circle cx="20" cy="20" r="20" fill="#7895A6"/><path d="M21.459 14.768c-1.207 0-2.156.427-2.848 1.283-.691.855-1.037 2.036-1.037 3.542 0 1.576.331 2.768.993 3.577.668.808 1.632 1.213 2.892 1.213.545 0 1.072-.053 1.582-.158.51-.112 1.04-.252 1.59-.422v1.802c-1.007.38-2.15.57-3.427.57-1.88 0-3.325-.568-4.333-1.704-1.008-1.143-1.512-2.775-1.512-4.896 0-1.336.243-2.505.73-3.507.492-1.002 1.201-1.77 2.127-2.302.926-.534 2.012-.8 3.26-.8 1.313 0 2.526.275 3.64.826l-.757 1.749a10.706 10.706 0 00-1.38-.536 4.83 4.83 0 00-1.52-.237z" fill="#fff"/></svg>
